svg/cpu_64_bit.svg

<?xml version="1.0" encoding="UTF-8"?><!DOCTYPE svg PUBLIC "-//W3C//DTD SVG 1.1//EN" "http://www.w3.org/Graphics/SVG/1.1/DTD/svg11.dtd"><svg xmlns="http://www.w3.org/2000/svg" xmlns:xlink="http://www.w3.org/1999/xlink" version="1.1" id="mdi-cpu-64-bit" width="24" height="24" viewBox="0 0 24 24"><path d="M9,3V5H7A2,2 0 0,0 5,7V9H3V11H5V13H3V15H5V17A2,2 0 0,0 7,19H9V21H11V19H13V21H15V19H17A2,2 0 0,0 19,17V15H21V13H19V11H21V9H19V7A2,2 0 0,0 17,5H15V3H13V5H11V3M8,9H11.5V10.5H8.5V11.25H10.5A1,1 0 0,1 11.5,12.25V14A1,1 0 0,1 10.5,15H8A1,1 0 0,1 7,14V10A1,1 0 0,1 8,9M12.5,9H14V11H15.5V9H17V15H15.5V12.5H12.5M8.5,12.75V13.5H10V12.75" /></svg>

<svg xmlns="http://www.w3.org/2000/svg" viewBox="0 0 24 24"><path d="M9 3v2H7a2 2 0 0 0-2 2v2H3v2h2v2H3v2h2v2a2 2 0 0 0 2 2h2v2h2v-2h2v2h2v-2h2a2 2 0 0 0 2-2v-2h2v-2h-2v-2h2V9h-2V7a2 2 0 0 0-2-2h-2V3h-2v2h-2V3M8 9h3.5v1.5h-3v.75h2a1 1 0 0 1 1 1V14a1 1 0 0 1-1 1H8a1 1 0 0 1-1-1v-4a1 1 0 0 1 1-1m4.5 0H14v2h1.5V9H17v6h-1.5v-2.5h-3m-4 .25v.75H10v-.75"/></svg>
